svg/furkot/freepik/ethanol-free.svg

<svg viewBox="0 0 512 512" xmlns="http://www.w3.org/2000/svg"><path d="m438.497 445.588c18.299-5.338 35.075-15.197 48.92-29.052 3.068-3.069 5.92-6.264 8.564-9.574 15.105 26.9 11.246 61.528-11.634 84.396-22.867 22.868-57.519 26.727-84.384 11.623 3.321-2.623 6.527-5.485 9.573-8.554 14.108-14.085 23.74-30.93 28.961-48.839zm-162.727-273.759-83.381 80.713c-23.571 21.044-37.669 40.531-52.613 47.458-85.654-89.182-172.503-226.828-117.056-282.274 55.378-55.389 196.302 33.26 285.484 118.824-7.076 15.139-12.355 15.584-32.434 35.279zm-124.679 87.77 41.131-43.216-24.346-24.346-40.664 40.64c8.325 10.638 14.42 16.411 23.879 26.922zm-48.35-60.795 35.969-35.956-29.189-29.202-28.915 28.927c6.481 11.749 13.891 23.898 22.135 36.231zm-56.134-128.025c1.088 13.731 6.092 31.823 14.784 52.608l18.918-18.907zm29.212-29.211 33.678 33.701 18.907-18.906c-20.761-8.692-38.866-13.707-52.585-14.795zm91.805 33.976-28.914 28.925 29.2 29.19 35.957-35.957c-12.367-8.257-24.505-15.655-36.243-22.158zm70.104 46.652-40.641 40.652 24.347 27.113 45.281-43.206c-10.502-9.469-18.36-16.269-28.987-24.559zm-9.191 228.031c16.612-19.424 42.935-50.559 48.054-50.227 6.538 44.271 26.954 77.409 65.396 115.85 21.689 21.712 50.534 33.644 81.213 33.644 1.798 0 3.585-.046 5.358-.149-4.419 9.975-10.707 19.331-18.882 27.505-17.658 17.67-40.549 26.327-63.578 26.327-23.337 0-46.812-8.863-65.135-26.327-121.772-115.829-92.414-78.234-89.958-86.494zm186.895 85.328c-23.291 0-46.583-8.875-64.356-26.647-114.844-114.845-44.32-134.848-18.683-167.394 20.288-25.755 51.557-52.999 67.607-65.783 8.46-6.739-20.352-.83 79.777 104.465 34.641 36.426 35.556 93.167 0 128.7-17.772 17.761-41.064 26.659-64.345 26.659zm-415.432 28.445 464-464c48 0 48 .012 48 48l-464 464c-48 0-48 0-48-48zm133.642-151.174-26.398 25.509c-3.849 7.698-63.127-63.779-47.846-72.2zm184.281-181.637 26.2-22.938c16-.389-56.167-69.356-64.589-54.074z"/></svg>

<svg viewBox="0 0 512 512" xmlns="http://www.w3.org/2000/svg"><defs><pattern width="25" height="25" patternUnits="userSpaceOnUse" viewBox="0 0 100 100"><path d="M0 0H50V100H0z"/></pattern></defs><path d="M 438.497 445.588 C 456.796 440.25 473.572 430.391 487.417 416.536 C 490.485 413.467 493.337 410.272 495.981 406.962 C 511.086 433.862 507.227 468.49 484.347 491.358 C 461.48 514.226 426.828 518.085 399.963 502.981 C 403.284 500.358 406.49 497.496 409.536 494.427 C 423.644 480.342 433.276 463.497 438.497 445.588 Z M 275.77 171.829 L 192.389 252.542 C 168.818 273.586 154.72 293.073 139.776 300 C 54.122 210.818 -32.727 73.172 22.72 17.726 C 78.098 -37.663 219.022 50.986 308.204 136.55 C 301.128 151.689 295.849 152.134 275.77 171.829 Z M 151.091 259.599 L 192.222 216.383 L 167.876 192.037 L 127.212 232.677 C 135.537 243.315 141.632 249.088 151.091 259.599 Z M 102.741 198.804 L 138.71 162.848 L 109.521 133.646 L 80.606 162.573 C 87.087 174.322 94.497 186.471 102.741 198.804 Z M 46.607 70.779 C 47.695 84.51 52.699 102.602 61.391 123.387 L 80.309 104.48 L 46.607 70.779 Z M 75.819 41.568 L 109.497 75.269 L 128.404 56.363 C 107.643 47.671 89.538 42.656 75.819 41.568 Z M 167.624 75.544 L 138.71 104.469 L 167.91 133.659 L 203.867 97.702 C 191.5 89.445 179.362 82.047 167.624 75.544 Z M 237.728 122.196 L 197.087 162.848 L 221.434 189.961 L 266.715 146.755 C 256.213 137.286 248.355 130.486 237.728 122.196 Z M 228.537 350.227 C 245.149 330.803 271.472 299.668 276.591 300 C 283.129 344.271 303.545 377.409 341.987 415.85 C 363.676 437.562 392.521 449.494 423.2 449.494 C 424.998 449.494 426.785 449.448 428.558 449.345 C 424.139 459.32 417.851 468.676 409.676 476.85 C 392.018 494.52 369.127 503.177 346.098 503.177 C 322.761 503.177 299.286 494.314 280.963 476.85 C 159.191 361.021 188.549 398.616 191.005 390.356 L 228.537 350.227 Z M 415.432 435.555 C 392.141 435.555 368.849 426.68 351.076 408.908 C 236.232 294.063 306.756 274.06 332.393 241.514 C 352.681 215.759 383.95 188.515 400 175.731 C 408.46 168.992 379.648 174.901 479.777 280.196 C 514.418 316.622 515.333 373.363 479.777 408.896 C 462.005 426.657 438.713 435.555 415.432 435.555 Z M 0 464 L 464 0 C 512 0 512 0.012 512 48 L 48 512 C 0 512 0 512 0 464 Z M 133.642 312.826 L 107.244 338.335 C 103.395 346.033 44.117 274.556 59.398 266.135 L 133.642 312.826 Z M 317.923 131.189 L 344.123 108.251 C 360.123 107.862 287.956 38.895 279.534 54.177 L 317.923 131.189 Z"/></svg>
